src/site/favicon.svg

<?xml version="1.0" encoding="UTF-8"?>
<svg xmlns="http://www.w3.org/2000/svg" xmlns:xlink="http://www.w3.org/1999/xlink" width="150px" height="150px" viewBox="0 0 150 150" version="1.1">
<g id="surface1">
<path style="fill-rule:nonzero;fill:rgb(50.588238%,73.725492%,29.803923%);fill-opacity:1;stroke-width:20;stroke-linecap:round;stroke-linejoin:round;stroke:rgb(33.333334%,18.82353%,9.803922%);stroke-opacity:1;stroke-miterlimit:4;" d="M 679.272014 390.784416 C 607.096109 475.967786 591.372137 552.575922 591.425986 603.316112 C 582.504965 585.393466 573.18905 568.36492 563.51414 552.352397 L 602.590725 232.427067 C 506.182671 346.181005 510.472658 444.674277 518.585941 486.615707 C 441.473858 386.313915 363.24889 339.678458 363.24889 339.678458 L 366.587542 381.355722 C 442.766239 439.472239 496.938554 513.357433 534.597109 581.126169 C 502.502974 553.470022 418.946934 500.332018 271.597517 528.049126 L 567.768229 648.122727 C 572.776206 659.359942 577.173893 670.129786 581.158735 680.249375 C 545.797747 651.821051 463.336641 605.00271 323.23892 631.398988 L 604.654945 749.460864 C 608.298742 762.303395 609.950118 769.740683 609.950118 769.740683 L 648.290763 763.075572 C 644.664915 747.063049 640.500576 731.680461 636.03109 716.663641 Z M 679.272014 390.784416 " transform="matrix(0.217622,0,0,0.192232,0,0.0543722)"/>
<path style=" stroke:none;fill-rule:nonzero;fill:rgb(100%,100%,100%);fill-opacity:1;" d="M 58.371094 32.238281 C 58.371094 32.238281 39.75 34.589844 35.15625 46.125 L 15.328125 48.261719 C 15.328125 48.261719 15.328125 53.390625 14.839844 55.953125 C 14.355469 58.515625 11.214844 67.484375 11.214844 67.484375 L 32.496094 62.789062 C 32.496094 62.789062 16.777344 75.390625 17.019531 82.011719 C 17.257812 88.632812 28.867188 101.234375 32.496094 102.304688 C 36.121094 103.371094 28.625 96.960938 34.671875 88.417969 C 40.71875 79.875 53.777344 76.242188 53.777344 76.242188 C 53.777344 76.242188 61.515625 87.347656 64.175781 87.988281 C 66.835938 88.628906 85.703125 95.46875 88.113281 97.390625 C 90.527344 99.3125 91.988281 99.746094 91.988281 99.746094 C 91.988281 99.746094 88.84375 85.859375 89.328125 82.65625 C 89.816406 79.453125 89.566406 76.675781 88.359375 74.113281 C 87.15625 71.550781 80.621094 62.359375 80.621094 62.359375 C 80.621094 62.359375 96.582031 52.960938 101.410156 54.457031 C 106.242188 55.949219 112.535156 63.855469 112.535156 63.855469 C 112.535156 63.855469 112.292969 50.183594 110.601562 46.339844 C 108.90625 42.492188 102.871094 37.367188 98.761719 37.15625 C 94.648438 36.945312 78.445312 39.929688 78.445312 39.929688 L 91.746094 27.328125 C 91.746094 27.328125 84.972656 23.695312 83.28125 23.484375 C 81.589844 23.269531 74.332031 19 74.332031 19 C 74.332031 19 60.789062 24.980469 58.371094 32.242188 Z M 58.371094 32.238281 "/>
<path style=" stroke:none;fill-rule:nonzero;fill:rgb(82.352942%,81.568629%,82.352942%);fill-opacity:1;" d="M 28.625 63.429688 L 11.9375 67.917969 L 16.777344 78.167969 Z M 28.625 63.429688 "/>
<path style=" stroke:none;fill-rule:nonzero;fill:rgb(82.352942%,81.568629%,82.352942%);fill-opacity:1;" d="M 39.269531 83.082031 L 33.945312 90.347656 L 42.171875 93.121094 Z M 39.269531 83.082031 "/>
<path style=" stroke:none;fill-rule:nonzero;fill:rgb(82.352942%,81.568629%,82.352942%);fill-opacity:1;" d="M 80.242188 38.179688 L 92.71875 27.40625 L 100.570312 36.082031 Z M 80.242188 38.179688 "/>
<path style=" stroke:none;fill-rule:nonzero;fill:rgb(82.352942%,81.568629%,82.352942%);fill-opacity:1;" d="M 91.496094 56.71875 L 101.261719 56.089844 L 100.066406 63.792969 Z M 91.496094 56.71875 "/>
<path style=" stroke:none;fill-rule:nonzero;fill:rgb(62.352943%,41.568628%,14.509805%);fill-opacity:1;" d="M 3.480469 27.753906 C 3.480469 27.753906 13.394531 45.910156 20.648438 38.648438 C 27.90625 31.386719 3.480469 27.753906 3.480469 27.753906 Z M 3.480469 27.753906 "/>
<path style=" stroke:none;fill-rule:nonzero;fill:rgb(62.352943%,41.568628%,14.509805%);fill-opacity:1;" d="M 24.246094 10.710938 C 24.246094 10.710938 25.171875 30.851562 35.097656 26.734375 C 45.023438 22.621094 24.246094 10.710938 24.246094 10.710938 Z M 24.246094 10.710938 "/>
<path style=" stroke:none;fill-rule:nonzero;fill:rgb(62.352943%,41.568628%,14.509805%);fill-opacity:1;" d="M 50.753906 2.898438 C 50.753906 2.898438 43.492188 22.011719 54.425781 21.289062 C 65.359375 20.570312 50.753906 2.898438 50.753906 2.898438 Z M 50.753906 2.898438 "/>
<path style="fill:none;stroke-width:20;stroke-linecap:round;stroke-linejoin:round;stroke:rgb(33.333334%,18.82353%,9.803922%);stroke-opacity:1;stroke-miterlimit:4;" d="M 364.882317 325.149328 C 364.882317 325.149328 426.431975 281.09457 469.278005 285.321226 C 512.124035 289.547882 516.737118 340.918006 516.737118 340.918006 C 531.994397 298.590487 520.00397 233.89014 476.996393 205.441496 C 434.006766 177.013172 346.358185 215.500124 346.358185 215.500124 C 361.992408 190.505957 427.778206 146.776326 421.100903 139.745447 C 414.423599 132.694247 388.432376 117.636786 376.477849 120.339407 C 364.505372 123.021708 331.836845 100.913047 331.836845 100.913047 C 283.228949 129.605537 266.894685 172.52235 266.894685 172.52235 C 266.894685 172.52235 177.46908 174.269909 156.719181 245.289919 C 156.719181 245.289919 111.629434 227.489195 61.854804 254.129319 C 61.854804 254.129319 74.724768 291.397044 66.216591 300.236444 C 57.690465 309.055524 51.354206 340.999288 53.903069 350.326379 C 56.451933 359.65347 127.999597 326.165352 157.47307 325.799583 C 157.47307 325.799583 79.104505 380.685147 81.078976 432.177194 C 83.053447 483.669241 132.074188 527.602076 176.194649 536.522758 C 176.194649 536.522758 134.69485 505.899824 153.32668 467.087745 C 171.95851 428.275665 241.585552 398.567152 241.585552 398.567152 M 301.483835 341.934029 C 301.483835 341.934029 249.914231 353.394769 244.008767 362.112246 C 238.085353 370.850044 249.824483 437.541795 317.997595 464.832174 C 382.437162 490.6798 409.50537 509.598148 421.639395 517.17768 C 434.114464 525.001057 406.130819 450.729774 407.028306 412.059938 C 408.033492 368.330307 353.484232 307.287644 333.326674 293.00236 C 311.553639 299.850355 301.483835 341.934029 301.483835 341.934029 Z M 54.621059 354.004382 C 54.621059 354.004382 61.675307 390.499929 78.907057 409.133792 M 154.00877 470.745428 C 154.00877 470.745428 180.448737 484.197573 197.806136 483.872445 C 197.806136 483.872445 183.338645 446.13735 182.369359 437.236988 M 422.62663 143.626655 C 422.62663 143.626655 450.161532 168.620821 457.143981 193.005374 M 469.65495 293.205565 C 469.65495 293.205565 467.411232 322.792155 458.131216 337.463528 C 458.131216 337.463528 433.414424 305.458802 426.306327 300.05356 M 95.815713 201.600929 C 95.815713 201.600929 225.86158 236.369237 268.564011 341.608901 M 301.322287 332.667899 C 301.322287 332.667899 186.174704 166.873262 160.362978 142.996721 M 256.645384 114.202628 C 256.645384 114.202628 275.510561 230.35438 314.2461 299.870676 M 106.316311 49.705487 C 106.316311 49.705487 118.181089 162.768529 159.878335 139.318717 C 197.447141 118.185438 106.316311 49.705487 106.316311 49.705487 Z M 9.998005 142.10262 C 9.998005 142.10262 67.544872 240.189483 95.815713 201.600929 C 121.304344 166.852941 9.998005 142.10262 9.998005 142.10262 Z M 232.520933 9.999307 C 232.520933 9.999307 206.583559 120.725496 253.665727 112.251864 C 296.098913 104.631691 232.520933 9.999307 232.520933 9.999307 Z M 232.520933 9.999307 " transform="matrix(0.217622,0,0,0.192232,0,0.0543722)"/>
</g>
</svg>

<svg id="レイヤー_1" data-name="レイヤー 1" xmlns="http://www.w3.org/2000/svg" viewBox="0 0 689.27 779.74"><defs><style>.cls-1{fill:#81bc4c;}.cls-2{fill:none;stroke:#553019;stroke-linecap:round;stroke-linejoin:round;stroke-width:20px;}.cls-3{fill:#fff;}.cls-4{fill:#d2d0d2;}.cls-5{fill:#9f6a25;}</style></defs><path class="cls-1" d="M679.27,390.79c-72.18,85.17-87.9,161.78-87.85,212.52-8.91-17.91-18.23-34.94-27.9-50.95l39.07-319.93c-96.41,113.75-92.11,212.24-84,254.18-77.11-100.3-155.34-146.93-155.34-146.93l3.34,41.67c76.17,58.13,130.35,132,168,199.78-32.08-27.66-115.64-80.79-263-53.09L567.77,648.12c5,11.24,9.4,22,13.38,32.13C545.8,651.82,463.34,605,323.24,631.39L604.66,749.46c3.64,12.84,5.29,20.28,5.29,20.28l38.34-6.67c-3.63-16-7.79-31.39-12.26-46.41l43.24-325.87Z"/><path class="cls-2" d="M679.27,390.79c-72.18,85.17-87.9,161.78-87.85,212.52-8.91-17.91-18.23-34.94-27.9-50.95l39.07-319.93c-96.41,113.75-92.11,212.24-84,254.18-77.11-100.3-155.34-146.93-155.34-146.93l3.34,41.67c76.17,58.13,130.35,132,168,199.78-32.08-27.66-115.64-80.79-263-53.09L567.77,648.12c5,11.24,9.4,22,13.38,32.13C545.8,651.82,463.34,605,323.24,631.39L604.66,749.46c3.64,12.84,5.29,20.28,5.29,20.28l38.34-6.67c-3.63-16-7.79-31.39-12.26-46.41l43.24-325.87Z"/><path class="cls-3" d="M268.23,167.43s-85.57,12.23-106.68,72.24L70.43,250.78s0,26.67-2.23,40-16.67,60-16.67,60l97.79-24.44s-72.23,65.56-71.12,100,54.45,100,71.12,105.56-17.79-27.78,10-72.23,87.8-63.34,87.8-63.34,35.56,57.78,47.78,61.11,98.91,38.91,110,48.91S422.7,518.6,422.7,518.6s-14.45-72.23-12.22-88.9,1.09-31.12-4.45-44.45-35.56-61.13-35.56-61.13S443.81,275.23,466,283s51.12,48.89,51.12,48.89-1.12-71.12-8.9-91.12S472.71,194.1,453.82,193s-93.35,14.44-93.35,14.44l61.11-65.56s-31.12-18.89-38.89-20-41.12-23.33-41.12-23.33-62.23,31.11-73.34,68.89Z"/><polygon class="cls-4" points="131.54 329.69 54.86 353.02 77.09 406.36 131.54 329.69 131.54 329.69"/><polygon class="cls-4" points="180.44 431.92 155.99 469.71 193.78 484.14 180.44 431.92 180.44 431.92"/><polygon class="cls-4" points="368.73 198.32 426.05 142.29 462.14 187.42 368.73 198.32 368.73 198.32"/><polygon class="cls-4" points="420.43 294.78 465.31 291.5 459.81 331.58 420.43 294.78 420.43 294.78"/><path class="cls-5" d="M16,144.09s45.55,94.46,78.89,56.68S16,144.09,16,144.09Z"/><path class="cls-5" d="M111.42,55.43s4.24,104.78,49.85,83.37-49.85-83.37-49.85-83.37Z"/><path class="cls-5" d="M233.22,14.8s-33.37,99.42,16.87,95.67S233.22,14.8,233.22,14.8Z"/><path class="cls-2" d="M364.88,325.15s61.56-44.06,104.4-39.83,47.46,55.6,47.46,55.6C532,298.59,520,233.89,477,205.45S346.35,215.5,346.35,215.5c15.64-25,81.42-68.72,74.75-75.76s-32.66-22.11-44.63-19.41-44.63-19.41-44.63-19.41c-48.62,28.69-64.95,71.61-64.95,71.61s-89.42,1.74-110.17,72.76c0,0-45.09-17.81-94.86,8.83,0,0,12.87,37.28,4.35,46.11S51.36,341,53.91,350.33,128,326.17,157.48,325.79c0,0-78.38,54.9-76.4,106.39s51,95.43,95.11,104.34c0,0-41.5-30.63-22.87-69.44s88.26-68.52,88.26-68.52m59.9-56.62S249.91,353.4,244,362.12s5.83,75.43,74,102.72c64.44,25.83,91.5,44.75,103.64,52.33,12.48,7.83-15.51-66.44-14.61-105.1,1-43.73-53.55-104.78-73.71-119.06-21.77,6.85-31.83,48.93-31.83,48.93ZM54.62,354s7.06,36.51,24.28,55.14M154,470.75s26.44,13.44,43.81,13.12c0,0-14.48-37.73-15.44-46.63M422.62,143.62s27.55,25,34.53,49.38m12.5,100.2s-2.24,29.59-11.52,44.26c0,0-24.71-32-31.83-37.41M95.81,201.61s130.06,34.75,172.75,140m32.77-8.94S186.17,166.87,160.36,143m96.29-28.8s18.86,116.16,57.59,185.67M106.32,49.7s11.87,113.07,53.55,89.62c37.58-21.13-53.55-89.62-53.55-89.62ZM10,142.11s57.54,98.08,85.81,59.5C121.3,166.85,10,142.11,10,142.11ZM232.52,10s-25.93,110.72,21.15,102.26C296.09,104.64,232.52,10,232.52,10Z"/></svg>
